lib/flags/m/GNB.svg

<svg xmlns="http://www.w3.org/2000/svg" fill="none" viewBox="0 0 20 15"><mask id="GNB_svg__a" width="20" height="15" x="0" y="0" mask-type="alpha" maskUnits="userSpaceOnUse"><path fill="#fff" d="M0 0H20V15H0z"/></mask><g fill-rule="evenodd" clip-rule="evenodd" mask="url(#GNB_svg__a)"><path fill="#FBCD17" d="M10 0H20V7.5H10V0Z"/><path fill="#0B9E7A" d="M10 7.5H20V15H10V7.5Z"/><path fill="#E11C1B" d="M0 0H10V15H0V0Z"/><path fill="#1D1D1D" d="M5.58166 9.12893L3.40314 10.64L4.09926 8.0519L2.5 6.39863L4.66548 6.30924L5.58166 3.75L6.49783 6.30924H8.65963L7.06406 8.0519L7.86315 10.4872L5.58166 9.12893Z"/></g></svg>

<svg xmlns="http://www.w3.org/2000/svg" fill="none" viewBox="0 0 20 15"><mask id="GNB_svg__a" width="20" height="15" x="0" y="0" maskUnits="userSpaceOnUse"><path fill="#fff" d="M0 0h20v15H0z"/></mask><g fill-rule="evenodd" clip-rule="evenodd" mask="url(#GNB_svg__a)"><path fill="#FBCD17" d="M10 0h10v7.5H10V0z"/><path fill="#0B9E7A" d="M10 7.5h10V15H10V7.5z"/><path fill="#E11C1B" d="M0 0h10v15H0V0z"/><path fill="#1D1D1D" d="M5.582 9.129L3.403 10.64 4.1 8.052 2.5 6.399l2.165-.09.917-2.559.916 2.56H8.66L7.064 8.051l.8 2.435L5.581 9.13z"/></g></svg>
